;FLAVOR:Marlin
;TIME:4586
;Filament used: 6.55492m
;Layer height: 0.33
;MINX:9.479
;MINY:40.839
;MINZ:0.33
;MAXX:225.524
;MAXY:194.159
;MAXZ:14.52
;POSTPROCESSED
;ChangeAtZ instances: 1
;Generated with Cura_SteamEngine 4.5.0
M140 S55
M105
M190 S55
M104 S210
M105
M109 S210
M82 ;absolute extrusion mode
; Ender 3 Custom Start G-code
G92 E0 ; Reset Extruder
G28 ; Home all axes
G1 Z2.0 F3000 ; Move Z Axis up little to prevent scratching of Heat Bed
G1 X0.1 Y20 Z0.3 F5000.0 ; Move to start position
G1 X0.1 Y200.0 Z0.3 F1500.0 E15 ; Draw the first line
G1 X0.4 Y200.0 Z0.3 F5000.0 ; Move to side a little
G1 X0.4 Y20 Z0.3 F1500.0 E30 ; Draw the second line
G92 E0 ; Reset Extruder
G1 Z2.0 F3000 ; Move Z Axis up little to prevent scratching of Heat Bed
G1 X5 Y20 Z0.3 F5000.0 ; Move over to prevent blob squish
G92 E0
G92 E0
G1 F2700 E-5
;LAYER_COUNT:44
;LAYER:0
M117 Layer 1 of 44 CE3_ecovid-faceshield-stack-3
M107
;MESH:ecovid-faceshield-stack-3.stl
G0 F7500 X124.673 Y75.413 Z0.33
;TYPE:WALL-INNER
G1 F2700 E0
G1 F1500 X126.839 Y74.13 E0.15888
G1 X134.14 Y69.805 E0.69443
G1 X136.757 Y68.348 E0.88347
G1 X136.969 Y68.23 E0.89878
G1 X137.061 Y68.178 E0.90545
G1 X137.029 Y68.336 E0.90896
G1 X137.065 Y68.576 E0.91964
G1 X137.124 Y68.968 E0.94465
G1 X137.281 Y69.542 E0.98221
G1 X137.375 Y69.687 E0.99312
G1 X137.638 Y70.081 E1.02301
G1 X137.722 Y70.207 E1.03257
G1 X137.889 Y70.31 E1.04495
G1 X137.953 Y70.349 E1.04968
G1 X137.841 Y70.389 E1.05098
G1 X137.801 Y70.405
G1 X137.66 Y70.46 E1.05854
G1 X135.505 Y71.309 E1.20472
G1 X129.886 Y73.492 E1.58516
G1 X127.035 Y74.543 E1.77693
G1 X124.673 Y75.413 E1.85669
G0 F7500 X123.55 Y76.205
G0 X118.948 Y78.057
G0 X113.746 Y80.368
G0 X108.572 Y82.743
G0 X106.917 Y83.388
G0 X105.689 Y83.94
G0 X104.511 Y84.398
G0 X103.669 Y84.848
G1 F1500 X103.659 Y84.864 E1.85788
G1 X103.653 Y84.874 E1.85861
G1 X103.678 Y85.141 E1.87554
G1 X103.669 Y85.234 E1.88143
G1 X103.644 Y85.318 E1.88697
G1 X103.602 Y85.396 E1.89256
G1 X103.549 Y85.46 E1.8978
G1 X103.476 Y85.52 E1.90376
G1 X103.394 Y85.564 E1.90964
G1 X103.311 Y85.589 E1.91511
G1 X103.222 Y85.598 E1.92075
G1 X103.133 Y85.589 E1.9264
G1 X102.856 Y85.505 E1.94467
G1 X102.775 Y85.229 E1.96282
G1 X102.765 Y85.142 E1.96835
G1 X102.775 Y85.048 E1.97431
G1 X102.799 Y84.967 E1.97964
G1 X102.84 Y84.892 E1.98504
G1 X102.902 Y84.816 E1.99123
G1 X102.968 Y84.761 E1.99665
G1 X103.049 Y84.718 E2.00244
G1 X103.129 Y84.694 E2.00771
G1 X103.222 Y84.685 E2.01361
G1 X103.313 Y84.694 E2.01938
G1 X103.392 Y84.718 E2.02459
G1 X103.628 Y84.846 E2.03617
G1 X103.654 Y84.847 E2.03665
G1 X103.669 Y84.848 E2.0367
G1 F2700 E-2.9633
G0 F7500 X104.234 Y84.506
G0 X108.535 Y82.724
G0 X118.941 Y78.019
G0 X124.349 Y75.858
G0 X137.948 Y70.675
G0 X140.308 Y69.836
G0 X142.7 Y69.076
G0 X145.12 Y68.408
G0 X147.565 Y67.839
G0 X150.033 Y67.392
G0 X152.52 Y67.082
G0 X155.024 Y66.924
G0 X157.532 Y66.896
G0 X160.03 Y66.978
G0 X162.508 Y67.172
G0 X164.957 Y67.474
G0 X167.385 Y67.896
G0 X169.79 Y68.436
G0 X172.166 Y69.094
G0 X174.507 Y69.867
G0 X176.806 Y70.754
G0 X179.059 Y71.752
G0 X181.26 Y72.861
G0 X183.406 Y74.076
G0 X185.489 Y75.394
G0 X187.503 Y76.814
G0 X189.447 Y78.33
G0 X191.313 Y79.941
G0 X193.098 Y81.639
G0 X194.797 Y83.426
G0 X196.407 Y85.291
G0 X197.924 Y87.234
G0 X199.343 Y89.249
G0 X200.662 Y91.332
G0 X201.876 Y93.477
G0 X202.985 Y95.678
G0 X203.983 Y97.931
G0 X204.87 Y100.23
G0 X205.644 Y102.572
G0 X206.301 Y104.947
G0 X206.842 Y107.352
G0 X207.263 Y109.78
G0 X207.564 Y112.227
G0 X207.746 Y114.685
G0 X207.807 Y116.768
G0 X207.746 Y118.852
G0 X207.564 Y121.31
G0 X207.263 Y123.757
G0 X206.842 Y126.185
G0 X206.301 Y128.59
G0 X205.644 Y130.965
G0 X204.87 Y133.307
G0 X203.983 Y135.606
G0 X202.985 Y137.859
G0 X201.876 Y140.06
G0 X200.662 Y142.205
G0 X199.343 Y144.288
G0 X197.924 Y146.303
G0 X196.407 Y148.246
G0 X194.797 Y150.111
G0 X193.098 Y151.898
G0 X191.312 Y153.596
G0 X189.447 Y155.206
G0 X187.503 Y156.723
G0 X185.489 Y158.143
G0 X183.406 Y159.461
G0 X181.26 Y160.676
G0 X179.059 Y161.785
G0 X176.806 Y162.783
G0 X174.507 Y163.67
G0 X172.166 Y164.443
G0 X169.79 Y165.101
G0 X167.385 Y165.641
G0 X164.957 Y166.063
G0 X162.508 Y166.365
G0 X160.03 Y166.559
G0 X157.532 Y166.641
G0 X155.024 Y166.613
G0 X152.52 Y166.455
G0 X150.033 Y166.145
G0 X147.565 Y165.698
G0 X145.12 Y165.129
G0 X142.7 Y164.461
G0 X140.308 Y163.701
G0 X137.948 Y162.862
G0 X124.349 Y157.679
G0 X118.941 Y155.518
G0 X113.732 Y153.205
G0 X108.535 Y150.813
G0 X104.233 Y149.032
G0 X103.316 Y147.948
G1 F2700 E2.0367
G1 F1500 X103.397 Y147.972 E2.04203
G1 X103.472 Y148.013 E2.04742
G1 X103.543 Y148.071 E2.05321
G1 X103.603 Y148.143 E2.05912
G1 X103.645 Y148.221 E2.06471
G1 X103.669 Y148.303 E2.07011
G1 X103.679 Y148.394 E2.07588
G1 X103.65 Y148.657 E2.09258
G1 X103.66 Y148.673 E2.09377
G1 X103.669 Y148.688 E2.09488
G1 X103.652 Y148.688 E2.09502
G1 X103.633 Y148.69 E2.09532
G1 X103.395 Y148.816 E2.10685
G1 X103.311 Y148.843 E2.11241
G1 X103.222 Y148.851 E2.11805
G1 X103.129 Y148.842 E2.12395
G1 X103.047 Y148.817 E2.12936
G1 X102.971 Y148.777 E2.13478
G1 X102.874 Y148.696 E2.14276
G1 X102.846 Y148.673 E2.14504
G1 X102.694 Y148.32 E2.1693
G1 X102.717 Y148.292 E2.17159
G1 X102.902 Y148.071 E2.18978
G1 X102.966 Y148.017 E2.19506
G1 X103.053 Y147.971 E2.20127
G1 X103.129 Y147.948 E2.20628
G1 X103.223 Y147.939 E2.21224
G1 X103.316 Y147.948 E2.21814
G0 F7500 X104.233 Y149.032
G0 X108.535 Y150.813
G0 X113.732 Y153.205
G0 X118.941 Y155.518
G0 X123.548 Y157.333
G0 X124.664 Y158.121
G1 F1500 X127.03 Y158.993 E2.37728
G1 X129.878 Y160.043 E2.56884
G1 X135.505 Y162.229 E2.94983
G1 X137.656 Y163.075 E3.0957
G1 X137.798 Y163.131 E3.10534
G1 X137.841 Y163.148 E3.10825
G1 X137.952 Y163.187 E3.11568
G1 X137.889 Y163.225
G1 X137.721 Y163.327 E3.12325
G1 X137.637 Y163.454 E3.13083
G1 X137.282 Y163.992 E3.17151
G1 X137.124 Y164.569 E3.20927
G1 X137.065 Y164.961 E3.23429
G1 X137.029 Y165.201 E3.2496
G1 X137.061 Y165.358 E3.25971
G1 X136.97 Y165.308
G1 X136.758 Y165.19 E3.27041
G1 X134.14 Y163.732 E3.45952
G1 X126.834 Y159.406 E3.99538
G1 X124.664 Y158.121 E4.07528
G1 F2700 E-0.92472
G0 F7500 X123.548 Y157.333
G0 X118.949 Y155.479
G0 X108.572 Y150.794
G0 X104.184 Y148.972
G0 X103.292 Y148.679
G0 X102.245 Y148.19
G0 X102.356 Y148.007
;TYPE:WALL-OUTER
G1 F2700 E4.07528
G1 F1500 X102.573 Y147.746 E4.0967
G1 X102.712 Y147.631 E4.10809
G1 X102.873 Y147.545 E4.11961
G1 X103.042 Y147.494 E4.13075
G1 X103.222 Y147.476 E4.14216
G1 X103.404 Y147.494 E4.1537
G1 X103.575 Y147.545 E4.16497
G1 X103.729 Y147.629 E4.17604
G1 X103.872 Y147.746 E4.1877
G1 X103.986 Y147.884 E4.19899
G1 X104.073 Y148.046 E4.2106
G1 X104.123 Y148.213 E4.2216
G1 X104.141 Y148.393 E4.23302
G1 X104.124 Y148.553 E4.24317
G1 X104.338 Y148.91 E4.26944
G1 X108.616 Y150.687 E4.5618
G1 X113.795 Y153.064 E4.92143
G1 X119.001 Y155.376 E5.28093
G1 X124.404 Y157.535 E5.64814
G1 X130.045 Y159.614 E6.02755
G1 X135.672 Y161.8 E6.40854
G1 X138.002 Y162.717 E6.56656
G1 X140.357 Y163.555 E6.72432
G1 X142.744 Y164.313 E6.88238
G1 X145.157 Y164.98 E7.04038
G1 X147.596 Y165.546 E7.1984
G1 X150.056 Y165.992 E7.35618
G1 X152.534 Y166.301 E7.51378
G1 X155.029 Y166.459 E7.67156
G1 X157.531 Y166.487 E7.82947
G1 X160.022 Y166.405 E7.98677
G1 X162.492 Y166.212 E8.14313
G1 X164.935 Y165.91 E8.29848
G1 X167.356 Y165.489 E8.45357
G1 X169.753 Y164.951 E8.60861
G1 X172.122 Y164.295 E8.76374
G1 X174.455 Y163.525 E8.91879
G1 X176.747 Y162.641 E9.07383
G1 X178.993 Y161.645 E9.22889
G1 X181.188 Y160.54 E9.38398
G1 X183.327 Y159.328 E9.53914
G1 X185.403 Y158.014 E9.6942
G1 X187.411 Y156.599 E9.84923
G1 X189.349 Y155.087 E10.00436
G1 X191.209 Y153.482 E10.15941
G1 X192.989 Y151.789 E10.31444
G1 X194.683 Y150.008 E10.46957
G1 X196.288 Y148.148 E10.62462
G1 X197.8 Y146.211 E10.7797
G1 X199.214 Y144.202 E10.93474
G1 X200.529 Y142.126 E11.08984
G1 X201.74 Y139.988 E11.24491
G1 X202.845 Y137.793 E11.4
G1 X203.841 Y135.547 E11.55506
G1 X204.725 Y133.255 E11.7101
G1 X205.496 Y130.921 E11.86523
G1 X206.151 Y128.553 E12.02029
G1 X206.69 Y126.156 E12.17534
G1 X207.11 Y123.735 E12.33042
G1 X207.411 Y121.296 E12.48551
G1 X207.592 Y118.844 E12.64068
G1 X207.652 Y116.768 E12.77175
G1 X207.592 Y114.693 E12.90277
G1 X207.411 Y112.241 E13.05793
G1 X207.11 Y109.802 E13.21303
G1 X206.69 Y107.381 E13.3681
G1 X206.151 Y104.984 E13.52316
G1 X205.496 Y102.616 E13.67822
G1 X204.725 Y100.282 E13.83335
G1 X203.841 Y97.99 E13.98838
G1 X202.845 Y95.744 E14.14344
G1 X201.74 Y93.549 E14.29854
G1 X200.529 Y91.411 E14.45361
G1 X199.214 Y89.335 E14.6087
G1 X197.8 Y87.326 E14.76375
G1 X196.288 Y85.389 E14.91883
G1 X194.683 Y83.529 E15.07388
G1 X192.989 Y81.748 E15.229
G1 X191.21 Y80.055 E15.38399
G1 X189.349 Y78.449 E15.53913
G1 X187.411 Y76.938 E15.69422
G1 X185.403 Y75.523 E15.84925
G1 X183.327 Y74.209 E16.00431
G1 X181.188 Y72.997 E16.15947
G1 X178.993 Y71.892 E16.31456
G1 X176.747 Y70.896 E16.46962
G1 X174.455 Y70.012 E16.62466
G1 X172.122 Y69.242 E16.77971
G1 X169.753 Y68.586 E16.93484
G1 X167.356 Y68.048 E17.08988
G1 X164.935 Y67.627 E17.24497
G1 X162.492 Y67.325 E17.40032
G1 X160.022 Y67.132 E17.55668
G1 X157.531 Y67.05 E17.71398
G1 X155.029 Y67.078 E17.87189
G1 X152.534 Y67.236 E18.02967
G1 X150.056 Y67.545 E18.18727
G1 X147.596 Y67.991 E18.34505
G1 X145.157 Y68.557 E18.50307
G1 X142.744 Y69.224 E18.66107
G1 X140.357 Y69.982 E18.81913
G1 X138.002 Y70.82 E18.97689
G1 X135.672 Y71.737 E19.13491
G1 X130.045 Y73.924 E19.51592
G1 X124.404 Y76.002 E19.89532
G1 X119.001 Y78.161 E20.26252
G1 X113.795 Y80.473 E20.62202
G1 X108.616 Y82.85 E20.98166
G1 X104.339 Y84.628 E21.27398
G1 X104.125 Y84.982 E21.30008
G1 X104.14 Y85.142 E21.31022
G1 X104.123 Y85.323 E21.3217
G1 X104.071 Y85.494 E21.33298
G1 X103.987 Y85.652 E21.34427
G1 X103.872 Y85.791 E21.35566
G1 X103.733 Y85.905 E21.367
G1 X103.572 Y85.991 E21.37852
G1 X103.402 Y86.043 E21.38974
G1 X103.222 Y86.061 E21.40116
G1 X103.042 Y86.043 E21.41257
G1 X102.791 Y85.966 E21.42914
G1 X102.336 Y86.162 E21.46041
G1 X101.541 Y86.534 E21.51581
G1 X100.257 Y86.739 E21.59787
G1 X98.916 Y86.622 E21.68282
G1 X97.477 Y86.076 E21.77995
G1 X97.438 Y86.048 E21.78298
G1 X96.843 Y85.281 E21.84425
G1 X96.692 Y84.924 E21.86871
G1 X96.02 Y84.233 E21.92954
G1 X95.028 Y83.736 E21.99957
G1 X93.969 Y83.504 E22.06799
G1 X92.998 Y83.651 E22.12997
G1 X92.035 Y84.088 E22.19671
G1 X91.141 Y84.758 E22.26721
G1 X90.515 Y85.534 E22.33014
G1 X90.299 Y86.312 E22.3811
G1 X89.765 Y86.944 E22.43331
G1 X88.813 Y87.401 E22.49996
G1 X87.582 Y87.53 E22.57807
G1 X86.296 Y87.239 E22.66129
G1 X85.123 Y86.601 E22.74556
G1 X84.097 Y85.533 E22.83902
G1 X84.078 Y85.495 E22.84171
G1 X83.926 Y84.57 E22.90087
G1 X83.968 Y84.188 E22.92512
G1 X83.731 Y83.288 E22.98386
G1 X83.145 Y82.428 E23.04953
G1 X82.331 Y81.732 E23.11713
G1 X81.306 Y81.358 E23.18599
G1 X80.204 Y81.267 E23.25577
G1 X79.077 Y81.434 E23.32767
G1 X78.164 Y81.849 E23.39097
G1 X77.617 Y82.449 E23.44221
G1 X76.852 Y82.777 E23.49474
G1 X75.802 Y82.731 E23.56107
G1 X74.634 Y82.28 E23.64009
G1 X73.66 Y81.337 E23.72565
G1 X73.012 Y80.145 E23.81127
G1 X72.78 Y78.676 E23.90513
G1 X72.785 Y78.636 E23.90768
G1 X73.189 Y77.785 E23.96713
G1 X73.438 Y77.496 E23.9912
G1 X73.743 Y76.607 E24.05052
G1 X73.721 Y75.54 E24.11787
G1 X73.403 Y74.487 E24.18729
G1 X72.729 Y73.579 E24.25866
G1 X71.791 Y72.879 E24.33253
G1 X70.713 Y72.391 E24.40721
G1 X69.676 Y72.272 E24.47308
G1 X68.902 Y72.533 E24.52463
G1 X68.065 Y72.455 E24.57769
G1 X67.138 Y71.963 E24.64392
G1 X66.267 Y71.113 E24.72073
G1 X65.639 Y69.977 E24.80265
G1 X65.32 Y68.693 E24.88614
G1 X65.397 Y67.201 E24.98043
G1 X65.411 Y67.163 E24.98299
G1 X65.969 Y66.395 E25.0429
G1 X66.271 Y66.152 E25.06736
G1 X66.731 Y65.314 E25.12769
G1 X66.882 Y64.226 E25.19702
G1 X66.677 Y63.09 E25.26987
G1 X66.092 Y62.048 E25.34529
G1 X65.191 Y61.19 E25.42381
G1 X64.152 Y60.573 E25.50007
G1 X63.118 Y60.356 E25.56675
G1 X62.32 Y60.549 E25.61856
G1 X61.498 Y60.399 E25.6713
G1 X60.609 Y59.837 E25.73767
G1 X59.814 Y58.936 E25.81351
G1 X59.254 Y57.762 E25.8956
G1 X59.007 Y56.466 E25.97886
G1 X59.152 Y54.983 E26.0729
G1 X59.167 Y54.943 E26.0756
G1 X59.757 Y54.202 E26.13538
G1 X60.067 Y53.974 E26.15966
G1 X60.563 Y53.161 E26.21977
G1 X60.75 Y52.067 E26.28981
G1 X60.59 Y50.878 E26.36553
G1 X59.984 Y49.736 E26.44712
G1 X59.03 Y48.775 E26.53258
G1 X57.863 Y48.104 E26.61754
G1 X56.781 Y47.93 E26.6867
G1 X55.999 Y48.224 E26.73943
G1 X55.128 Y48.213 E26.7944
G1 X54.143 Y47.868 E26.86027
G1 X53.142 Y47.337 E26.93178
G1 X52.248 Y46.603 E27.00478
G1 X51.382 Y45.727 E27.08252
G1 X50.382 Y44.637 E27.17588
G1 X50.086 Y43.664 E27.24006
G1 X50.06 Y43.263 E27.26542
G1 X49.572 Y42.396 E27.32821
G1 X48.672 Y41.713 E27.39952
G1 X47.493 Y41.294 E27.47848
G1 X46.197 Y41.28 E27.56028
G1 X44.917 Y41.658 E27.64451
G1 X43.818 Y42.327 E27.72571
G1 X43.14 Y43.172 E27.79408
G1 X42.98 Y43.983 E27.84625
G1 X42.504 Y44.681 E27.89957
G1 X41.648 Y45.281 E27.96555
G1 X40.539 Y45.722 E28.04087
G1 X39.291 Y45.882 E28.12027
G1 X37.999 Y45.755 E28.20221
G1 X36.589 Y45.284 E28.29603
G1 X36.551 Y45.259 E28.2989
G1 X35.916 Y44.526 E28.3601
G1 X35.738 Y44.177 E28.38483
G1 X34.972 Y43.579 E28.44616
G1 X33.824 Y43.264 E28.52129
G1 X32.489 Y43.361 E28.60576
G1 X31.159 Y43.972 E28.69814
G1 X30.072 Y45.041 E28.79435
G1 X29.358 Y46.278 E28.88449
G1 X29.277 Y47.352 E28.95247
G1 X29.308 Y47.521 E28.96331
G1 X29.639 Y48.203 E29.01115
G1 X29.705 Y49.064 E29.06565
G1 X29.481 Y50.094 E29.13218
G1 X29.031 Y51.163 E29.20538
G1 X28.327 Y52.176 E29.28323
G1 X27.391 Y53.062 E29.36457
G1 X26.115 Y53.797 E29.4575
G1 X26.078 Y53.805 E29.45989
G1 X25.15 Y53.744 E29.51859
G1 X24.797 Y53.615 E29.54231
G1 X23.892 Y53.631 E29.59943
G1 X22.983 Y53.981 E29.6609
G1 X22.09 Y54.535 E29.72723
G1 X21.396 Y55.369 E29.7957
G1 X20.916 Y56.689 E29.88434
G1 X20.787 Y58.024 E29.96899
G1 X21.115 Y59.103 E30.04016
G1 X21.712 Y59.684 E30.09274
G1 X22.045 Y60.464 E30.14626
G1 X22.152 Y61.519 E30.21319
G1 X21.989 Y62.68 E30.28718
G1 X21.561 Y63.86 E30.3664
G1 X20.86 Y64.947 E30.44803
G1 X19.768 Y65.955 E30.54182
G1 X19.728 Y65.975 E30.54464
G1 X18.801 Y66.155 E30.60424
G1 X18.418 Y66.126 E30.62848
G1 X17.517 Y66.43 E30.68849
G1 X16.659 Y67.135 E30.75857
G1 X16.022 Y68.115 E30.83234
G1 X15.731 Y69.301 E30.90941
G1 X15.809 Y70.563 E30.98921
G1 X16.178 Y71.751 E31.06772
G1 X16.814 Y72.607 E31.13502
G1 X17.546 Y72.981 E31.1869
G1 X18.08 Y73.632 E31.24004
G1 X18.41 Y74.637 E31.3068
G1 X18.457 Y75.841 E31.38284
G1 X18.148 Y77.097 E31.46447
G1 X17.516 Y78.257 E31.54784
G1 X16.455 Y79.304 E31.64191
G1 X16.421 Y79.322 E31.64434
G1 X15.491 Y79.508 E31.7042
G1 X15.11 Y79.48 E31.72831
G1 X14.212 Y79.771 E31.78788
G1 X13.359 Y80.447 E31.85657
G1 X12.704 Y81.409 E31.93002
G1 X12.394 Y82.593 E32.00726
G1 X12.445 Y83.874 E32.08817
G1 X12.807 Y85.089 E32.16818
G1 X13.446 Y85.956 E32.23616
G1 X14.183 Y86.324 E32.28815
G1 X14.731 Y86.968 E32.34151
G1 X15.097 Y87.963 E32.40842
G1 X15.198 Y89.152 E32.48373
G1 X14.965 Y90.411 E32.56454
G1 X14.435 Y91.61 E32.64727
G1 X13.499 Y92.757 E32.7407
G1 X13.458 Y92.785 E32.74384
G1 X12.566 Y93.081 E32.80315
G1 X12.177 Y93.102 E32.82774
G1 X11.319 Y93.518 E32.88791
G1 X10.566 Y94.327 E32.95767
G1 X10.048 Y95.402 E33.03298
G1 X9.923 Y96.648 E33.11201
G1 X10.176 Y97.929 E33.19441
G1 X10.742 Y99.082 E33.27548
G1 X11.518 Y99.834 E33.34367
G1 X12.309 Y100.069 E33.39575
G1 X12.964 Y100.612 E33.44945
G1 X13.488 Y101.523 E33.51577
G1 X13.805 Y102.673 E33.59106
G1 X13.818 Y103.946 E33.6714
G1 X13.537 Y105.223 E33.75392
G1 X12.851 Y106.539 E33.84758
G1 X12.819 Y106.573 E33.85053
G1 X12.001 Y107.052 E33.91036
G1 X11.623 Y107.157 E33.93511
G1 X10.872 Y107.753 E33.99562
G1 X10.317 Y108.724 E34.06621
G1 X10.055 Y109.91 E34.14286
G1 X10.237 Y111.18 E34.22383
G1 X10.799 Y112.374 E34.30712
G1 X11.619 Y113.351 E34.38762
G1 X12.556 Y113.881 E34.45556
G1 X13.386 Y113.924 E34.50801
G1 X14.168 Y114.303 E34.56285
G1 X14.914 Y115.089 E34.63124
G1 X15.339 Y116.207 E34.70673
G1 X15.426 Y117.528 E34.79028
G1 X15.151 Y118.839 E34.87482
G1 X14.434 Y120.143 E34.96873
G1 X14.402 Y120.173 E34.9715
G1 X13.573 Y120.613 E35.03073
G1 X13.195 Y120.697 E35.05517
